www/assets/icons/living.svg

<svg xmlns="http://www.w3.org/2000/svg" width="24" height="24" viewBox="0 0 24 24" fill='currentColor'><path d="M16.5 11.5c-.55 0-1 .45-1 1v2h-7v-2c0-.55-.45-1-1-1s-1 .45-1 1V16c0 .28.22.5.5.5h10c.28 0 .5-.22.5-.5v-3.5c0-.55-.45-1-1-1"/><path d="M10 12.5v.5h4v-.5c0-1.3.99-2.35 2.25-2.47V9c0-.83-.67-1.5-1.5-1.5h-5.5c-.83 0-1.5.67-1.5 1.5v1.03A2.48 2.48 0 0 1 10 12.5"/><path d="M20 2H4c-1.1 0-2 .9-2 2v16c0 1.1.9 2 2 2h16c1.1 0 2-.9 2-2V4c0-1.1-.9-2-2-2m-1 14c0 1.1-.9 2-2 2H7c-1.1 0-2-.9-2-2v-3.5c0-.92.51-1.72 1.25-2.15V9c0-1.66 1.34-3 3-3h5.5c1.66 0 3 1.34 3 3v1.35c.74.43 1.25 1.23 1.25 2.15z"/></svg>

<svg width="24" height="24" viewBox="0 0 24 24" xmlns="http://www.w3.org/2000/svg" fill='currentColor'><path d="M16.5 11.5C15.95 11.5 15.5 11.95 15.5 12.5V14.5H8.5V12.5C8.5 11.95 8.05 11.5 7.5 11.5C6.95 11.5 6.5 11.95 6.5 12.5V16C6.5 16.28 6.72 16.5 7 16.5H17C17.28 16.5 17.5 16.28 17.5 16V12.5C17.5 11.95 17.05 11.5 16.5 11.5Z"/><path d="M10 12.5V13H14V12.5C14 11.2 14.99 10.15 16.25 10.03V9C16.25 8.17 15.58 7.5 14.75 7.5H9.25C8.42 7.5 7.75 8.17 7.75 9V10.03C9.01 10.15 10 11.2 10 12.5Z"/><path d="M20 2H4C2.9 2 2 2.9 2 4V20C2 21.1 2.9 22 4 22H20C21.1 22 22 21.1 22 20V4C22 2.9 21.1 2 20 2ZM19 16C19 17.1 18.1 18 17 18H7C5.9 18 5 17.1 5 16V12.5C5 11.58 5.51 10.78 6.25 10.35V9C6.25 7.34 7.59 6 9.25 6H14.75C16.41 6 17.75 7.34 17.75 9V10.35C18.49 10.78 19 11.58 19 12.5V16Z"/></svg>
